X: 7803
T: Come Under My Dimity
R: slip jig
M: 9/8
K: Gmajor
|:E|D2 G ABG FGA|B2 B cAB c2 A|DGG AB/A/G FGA|1 B^AB c=AF G2:|2 d2 d cAF G2||
|:B|d2 d cAG F2 A|dB/c/d cAB c2 A|d2 d cAG FGA|1 dBd cAF G2:|2 B^AB c=AF G2||

